X: 0772
T: THE TWO SISTERS
B: Oliver Ditson "The Boston Collection of Instrumental Music" 1910 p.77 #2
F: http://conquest.imslp.info/files/imglnks/usimg/8/8f/IMSLP175643-PMLP309456-bostoncollection00bost_bw.pdf
N: This is a variant of Boys (or Beaux) of Blue Hill.
%: 2012 John Chambers <jc:trillian.mit.edu>
M: 2/4
L: 1/16
K: D
dB |\
AFDF AFAd | BABd e2de | f2af e2fe | defd B2dB |\
AFDF AFGA | BABd e2de | f2af e2de | f2d2d2 :|
|: de |\
fefg a2gf | efga b2ag | f2af e2fe | defd B2dB |\
AFDF AFGA | BABd e2de | f2af e2de | f2d2d2 :|

%%sep 1 1 500
%%sep 1 1 500
